!!!COM: Bach, Johann Sebastian
!!!CDT: 1685/3/-1750/7/28
!!!OPR@@DE: Das wohltemperierte Klavier
!!!OPR@EN: The Well-Tempered Clavier
!!!OTL: The Well-Tempered Clavier, Book 1, Fugue 20 in A minor
!!!SCT: BWV 865b
!!!parts: 4
!!!RNB: The texture increases to five voices in the final eight measures.
!!!RWG: The voicing in the final measure is somewhat arbitrary.
**kern	**kern	**kern	**kern
*staff2	*staff2	*staff1	*staff1
*clefF4	*clefF4	*clefG2	*clefG2
*k[]	*k[]	*k[]	*k[]
*M4/4	*M4/4	*M4/4	*M4/4
*a:	*a:	*a:	*a:
*MM84	*MM84	*MM84	*MM84
=1	=1	=1	=1
1r	1r	8r	1r
.	.	16AL	.
.	.	16G#J	.
.	.	8AL	.
.	.	8BJ	.
.	.	8cL	.
.	.	16c	.
.	.	16BJ	.
.	.	8cL	.
.	.	8dJ	.
=2	=2	=2	=2
1r	1r	16eL	1r
.	.	16d	.
.	.	16c	.
.	.	16dJ	.
.	.	8eL	.
.	.	8fJ	.
.	.	8G#L	.
.	.	8EJ	.
.	.	8r	.
.	.	8A	.
=3	=3	=3	=3
1r	1r	16BL	1r
.	.	16c	.
.	.	16A	.
.	.	16BJ	.
.	.	16cL	.
.	.	16d	.
.	.	16B	.
.	.	16cJ	.
.	.	8dL	.
.	.	8cJ	.
.	.	8BL	.
.	.	8eJ	.
=4	=4	=4	=4
1r	1r	4A	8r
.	.	.	16eL
.	.	.	16d#J
.	.	8GL	8eL
.	.	8F#J	8f#J
.	.	8EL	8gL
.	.	8cJ	16g
.	.	.	16f#J
.	.	8BL	8gL
.	.	8AJ	8aJ
=5	=5	=5	=5
1r	1r	16GL	16bL
.	.	16F#	16a
.	.	16E	16g
.	.	16F#J	16aJ
.	.	8GL	8bL
.	.	8AJ	8ccJ
.	.	16BL	8d#L
.	.	16A	.
.	.	16G	8BJ
.	.	16AJ	.
.	.	8BL	8r
.	.	[8cJ	8e
=6	=6	=6	=6
1r	1r	8c]L	16f#L
.	.	.	16g
.	.	16B	16e
.	.	16AJ	16f#J
.	.	8BL	16gL
.	.	.	16a
.	.	[8eJ	16f#
.	.	.	16gJ
.	.	8e]L	8aL
.	.	16d	8gJ
.	.	16c#J	.
.	.	[4d	8f#L
.	.	.	8bJ
=7	=7	=7	=7
1r	1r	8d]L	8eL
.	.	16cn	16f#
.	.	16BJ	16g#J
.	.	[4c	16aL
.	.	.	16b
.	.	.	16cc
.	.	.	16ddJ
.	.	16c]L	8eeL
.	.	16a	.
.	.	16gn	8aJ
.	.	16fnJ	.
.	.	16eL	4g#
.	.	16d	.
.	.	16c	.
.	.	16BJ	.
=8	=8	=8	=8
8r	1r	16cL	8aL
.	.	16BJ	.
16AAL	.	4c	8aJ
16GG#J	.	.	.
8AAL	.	.	8gnL
8BBJ	.	8d	8fJ
8CL	.	16eL	8eL
.	.	16dJ	.
16C	.	4e	8ccJ
16BBJ	.	.	.
8CL	.	.	8bL
8DJ	.	[8f	8aJ
=9	=9	=9	=9
16EL	1r	16f]L	8g#L
16D	.	16f#	.
16C	.	16e	8eeJ
16DJ	.	16f#J	.
8EL	.	8g#L	8ddL
8FJ	.	8aJ	8ccJ
8GG#L	.	4b	16bL
.	.	.	16cc
8EEJ	.	.	16dd
.	.	.	16bJ
8r	.	8r	16ccL
.	.	.	16b
8AA	.	8a	16a
.	.	.	16ccJ
=10	=10	=10	=10
16BBL	1r	[4gn	16ddL
16C	.	.	16ee
16AA	.	.	16ff
16BBJ	.	.	16ddJ
16C#L	.	16g]L	[4ee
16D	.	16f	.
16BB	.	16e	.
16C#J	.	16gJ	.
8DL	.	4f#	8ee]L
8CnJ	.	.	8aJ
8BBL	.	4g#	16bL
.	.	.	16cc
8EJ	.	.	[8ddJ
=11	=11	=11	=11
8AAL	8r	8aL	8dd]L
8BBJ	16EL	8aJ	8ccJ
.	16D#J	.	.
8C#L	8EL	8gnL	8bL
8D#J	8F#J	8f#J	8aJ
8EL	8GL	8eL	8gL
16E	16G	8ccJ	8eeJ
16DnJ	16F#J	.	.
8EL	8GL	8bL	8ddL
8F#J	8AJ	8aJ	8ccJ
=12	=12	=12	=12
4G	16BL	16gL	4b
.	16A	16f#	.
.	16G	16e	.
.	16AJ	16f#J	.
8r	8BL	8gL	8r
8A	8cJ	[8f#J	[8a
8BL	8D#L	8f#]L	8a]L
16BB	8BBJ	16e	16g
16AAJ	.	16d#J	16f#J
8GGL	8r	[4e	16gL
.	.	.	16a
8EEJ	8E	.	16b
.	.	.	16gJ
=13	=13	=13	=13
4AA	16F#L	8e]L	4cc
.	16G	.	.
.	16E	16a	.
.	16F#J	16d#J	.
4BB	16GL	[2e	8r
.	16A	.	.
.	16F#	.	8b
.	16GJ	.	.
8CL	8AL	.	16aL
.	.	.	16g
8BBJ	8GJ	.	16a
.	.	.	16bJ
8AAL	8F#L	8e]L	8ccL
16BB	8BJ	8d#J	8f#J
16AAJ	.	.	.
=14	=14	=14	=14
8GGL	4E	4.e	16bL
.	.	.	16a
8AAJ	.	.	16cc
.	.	.	16bJ
4BB	8BL	.	16aL
.	.	.	16g
.	8AJ	8d#	16f#
.	.	.	16gJ
8EL	8G#L	8e	8eL
8DJ	8EJ	8r	16ee
.	.	.	16ffnJ
8CL	8F#L	4r	8eeL
8BBJ	8G#J	.	8ddnJ
=15	=15	=15	=15
8AAL	8A	8r	8ccL
8BJ	8r	8e	16cc
.	.	.	16ddJ
8AL	4r	8f#L	8ccL
8GnJ	.	8gJ	8bJ
8F#L	8r	8a	16aL
.	.	.	16b
8GJ	8A	8r	16cc
.	.	.	16bJ
8F#L	8BL	4r	8aL
8EJ	8c#J	.	8gJ
=16	=16	=16	=16
8DL	4d	8r	8ff#L
8EJ	.	8d	8aaJ
8DL	4r	8eL	8r
8CJ	.	8f#J	8ee
8BB	8r	8g	16ddL
.	.	.	16cc
4G	8B	8r	16ee
.	.	.	16ddJ
.	4A	4r	16ccL
.	.	.	16b
8F#	.	.	16dd
.	.	.	16ccJ
=17	=17	=17	=17
16GL	[2G	2r	8bL
16E	.	.	.
16D	.	.	8ccJ
16CJ	.	.	.
8BBL	.	.	16ddL
.	.	.	16b
8EJ	.	.	16a
.	.	.	16gJ
8CL	8G]	8r	32eeL
.	.	.	32ff#
.	.	.	16ee
8AAJ	4A	16ddL	16ff#
.	.	16eeJ	16ggJ
8DL	.	8ddL	8.ff#L
8DDJ	[8D	8ccJ	.
.	.	.	16ggJ
=18	=18	=18	=18
8GG	8D]L	8bL	[2gg
8r	16g	16b	.
.	16aJ	16ccJ	.
4r	8gL	8bL	.
.	8fJ	8aJ	.
2r	8eL	4g	8gg]L
.	16e	.	16gg
.	16fJ	.	16aaJ
.	8eL	8aL	8ggL
.	8dJ	8bJ	8ffJ
=19	=19	=19	=19
1r	16cL	4cc	16eeL
.	16d	.	16dd
.	16e	.	16cc
.	16dJ	.	16ddJ
.	8cL	8r	16eeL
.	.	.	16ff
.	8B-J	8dd	[8ggJ
.	8aL	8.cc#L	16gg]L
.	.	.	16ff
.	8cc#J	.	16ee
.	.	16ddJ	16ffJ
.	8r	[4ee	16ggL
.	.	.	16aa
.	8g	.	16bb-
.	.	.	16ggJ
=20	=20	=20	=20
1r	16fL	16ee]L	8.aaL
.	16e	16cc#	.
.	16g	[8ddJ	.
.	16fJ	.	16bb-J
.	16eL	16dd]L	8.ggL
.	16d	16bn	.
.	16f	8cc#J	.
.	16eJ	.	16aaJ
.	8dL	4dd	16ffL
.	.	.	16ee
.	8eJ	.	16ff
.	.	.	16ggJ
.	16fL	8r	8aaL
.	16e	.	.
.	16d	8f	8aJ
.	16cJ	.	.
=21	=21	=21	=21
8r	8B-L	16gL	16ddL
.	.	16cc#	16gg
16AL	16A	16dd	16ff
16B-J	16GJ	16eeJ	16eeJ
8AL	[4A	4cc#	8.eeL
8GJ	.	.	.
.	.	.	16ddJ
8FL	8A]L	8ddL	4.dd
16F	8AJ	16a	.
16GJ	.	16b-J	.
8FL	8BnL	8aL	.
8EJ	8c#J	8gJ	8ee
=22	=22	=22	=22
16DL	8d	8fL	[2ff
16E	.	.	.
16F	8r	8aJ	.
16EJ	.	.	.
8DL	4r	8bnL	.
8CJ	.	8ccJ	.
8BL	2r	16ddL	4ff_
.	.	16cc	.
8dJ	.	16b	.
.	.	16aJ	.
8r	.	8gL	16ff]L
.	.	.	16ee
8A	.	[8fJ	16dd
.	.	.	16ccJ
=23	=23	=23	=23
16GL	1r	8f]L	8b
16F	.	.	.
16A	.	8eJ	4cc
16GJ	.	.	.
16FL	.	4d	.
16E	.	.	.
16G	.	.	8b
16FJ	.	.	.
8EL	.	16r	4.cc
.	.	16aL	.
8FJ	.	16g	.
.	.	16fJ	.
16GL	.	8eL	.
16E	.	.	.
16D	.	[8gJ	8b-
16CJ	.	.	.
=24	=24	=24	=24
16FL	2r	8g]L	[2a
16E	.	.	.
16D	.	16f	.
16CJ	.	16gJ	.
16DL	.	8fL	.
16E	.	.	.
16F	.	8eJ	.
16DJ	.	.	.
4BB	8r	8dL	8a]L
.	16BL	16d	8g#J
.	16cJ	16eJ	.
8CL	8BL	8dL	8aL
[8DJ	8AJ	8cJ	8bJ
=25	=25	=25	=25
8D]L	4.G#	16BL	[4e
.	.	16c	.
8EJ	.	16d	.
.	.	16cJ	.
8DL	.	8BL	16e]L
.	.	.	16f#
8CJ	8E	8AJ	16g#
.	.	.	16aJ
8BBL	8DL	8g#L	16bL
.	.	.	16cc
16D	16F	8bJ	16b
16CJ	16EJ	.	16ccJ
8BBL	8DL	8r	[4dd
8AAJ	8CJ	8fn	.
=26	=26	=26	=26
8GG#L	8BBL	16eL	8dd]
.	.	16d	.
8AAJ	8CJ	16f	4cc
.	.	16eJ	.
8BBL	8DL	16dL	.
.	.	16c	.
8GG#J	8BBJ	16e	[8b
.	.	16dJ	.
8AAL	4.E	8cL	8b]L
8BBJ	.	8dJ	16a
.	.	.	16g#J
8CL	.	16eL	[4a
.	.	16c	.
8FJ	[8F	16B	.
.	.	16AJ	.
=27	=27	=27	=27
8DL	8F]L	16fL	4a]
.	.	16d	.
8BBJ	8DJ	16e	.
.	.	16fJ	.
8EL	8EL	8.BL	4g#
8EEJ	8DJ	.	.
.	.	16AJ	.
8AAL	8C	8A	8aL
8AJ	8r	8r	16a
.	.	.	16g#J
8CL	4r	4r	8aL
8EJ	.	.	8bJ
=28	=28	=28	=28
8AAL	8r	1r	8ccL
8FJ	16AL	.	16cc
.	16G#J	.	16bJ
8EL	8AL	.	8ccL
8DJ	8BJ	.	8ddJ
8CL	8cL	.	16eeL
.	.	.	16dd
8AJ	16c	.	16cc
.	16BJ	.	16ddJ
8GnL	8cL	.	8eeL
8FJ	8dJ	.	8ffJ
=29	=29	=29	=29
8EL	16eL	1r	8g#L
.	16d	.	.
16A	16c	.	8eJ
16GJ	16dJ	.	.
16FL	8eL	.	8r
16E	.	.	.
16D	8fJ	.	8a
16CJ	.	.	.
8BBL	8G#L	.	16bL
.	.	.	16cc
16c	8EJ	.	16a
16BJ	.	.	16bJ
16AL	8r	.	16ccL
16Gn	.	.	16dd
16F	8A	.	16b
16EJ	.	.	16ccJ
=30	=30	=30	=30
8D	16BL	1r	8ddL
.	16c	.	.
8r	16A	.	8ccJ
.	16BJ	.	.
8E	16cL	.	8bL
.	16d	.	.
8r	16B	.	8eeJ
.	16cJ	.	.
8FL	8dL	.	8a
8EJ	8cJ	.	4aa
8DL	8BL	.	.
8EJ	8eJ	.	[8gg
=31	=31	=31	=31
8CL	[2A	2r	8gg]L
8BBJ	.	.	16ccc
.	.	.	16bbJ
8CL	.	.	16aaL
.	.	.	16gg
8AAJ	.	.	16ff#
.	.	.	16eeJ
4.BB	8A]L	8r	8dd#L
.	16G	16eL	8bJ
.	16F#J	16d#J	.
.	8GL	8eL	8cc#L
8AA	8AJ	8f#J	8dd#J
=32	=32	=32	=32
8GGL	8B	8gL	16eeL
.	.	.	16ddn
16E	4e	16g	16ccn
16D#J	.	16f#J	16bJ
8EL	.	8gL	4cc
8F#J	8d#	8aJ	.
8GL	8e	16bL	8bL
.	.	16a	.
16G	8r	16g	16ee
16F#J	.	16aJ	16dd#J
8GL	4r	8bL	8eeL
8AJ	.	8ccJ	8ff#J
=33	=33	=33	=33
16BL	1r	8d#L	8ggL
16A	.	.	.
16G	.	8BJ	16gg
16AJ	.	.	16ff#J
8BL	.	8r	8ggL
8cJ	.	8e	8aaJ
8D#L	.	16f#L	[2b
.	.	16g	.
8BBJ	.	16e	.
.	.	16f#J	.
8r	.	16gL	.
.	.	16a	.
8E	.	16f#	.
.	.	16gJ	.
=34	=34	=34	=34
16F#L	1r	8aL	4.b]
16G	.	.	.
16E	.	8gJ	.
16F#J	.	.	.
16GL	.	8f#L	.
16A	.	.	.
16F#	.	8bJ	16eeL
16GJ	.	.	16ddJ
8AL	.	4.e	16ccL
.	.	.	16b
8GJ	.	.	16a
.	.	.	16bJ
8F#L	.	.	8ccL
8BJ	.	8d#	16b
.	.	.	16aJ
=35	=35	=35	=35
8EL	1r	8eL	4g
16E	.	16cc	.
16D#J	.	16bJ	.
8EL	.	16aL	[4cc
.	.	16g	.
8F#J	.	16f#	.
.	.	16eJ	.
[2G	.	8dL	8cc]L
.	.	16g	16b
.	.	16fnJ	16aJ
.	.	16eL	8bL
.	.	16d	.
.	.	16c#	8cc#J
.	.	16BJ	.
=36	=36	=36	=36
8G]L	2r	8AL	[2dd
16F#	.	16dd	.
16EJ	.	16ccnJ	.
8F#L	.	16bL	.
.	.	16a	.
8G#J	.	16g#	.
.	.	16f#J	.
8A	8r	4e	8dd]L
8r	16AL	.	16cc
.	16G#J	.	16bJ
4r	8AL	4a	8ccL
.	8BJ	.	8ddJ
=37	=37	=37	=37
8r	8cL	8r	8eeL
8A	16c	16aL	8aJ
.	16BJ	16g#J	.
8GL	8cL	8aL	[4aa
8FJ	8dJ	8bJ	.
4E	16eL	8ccL	16aa]L
.	16d	.	16gg#
.	16c	16cc	16aa
.	16dJ	16bJ	16gg#J
4r	8eL	8ccL	8aaL
.	8fJ	8ddJ	8bbJ
=38	=38	=38	=38
8r	8G#L	16eeL	4.ee
.	.	16dd	.
16AAL	8EJ	16cc	.
16BBJ	.	16ddJ	.
8CL	8r	8eeL	.
[8DJ	8A	8ffJ	16ddL
.	.	.	16ccJ
8D]L	16BL	8g#L	8bL
.	16c	.	.
16C	16A	8eJ	16ee
16DJ	16BJ	.	16ddJ
8EL	16cL	8r	16ccL
.	16d	.	16b
[8FJ	16B	8a	16a
.	16cJ	.	16g#J
=39	=39	=39	=39
8F]L	8dL	16bL	8a
.	.	16cc	.
16E	8cJ	16a	8r
16DJ	.	16bJ	.
8EL	8BL	16ccL	8g#
.	.	16dd	.
8CJ	8eJ	16b	8r
.	.	16ccJ	.
8FL	4.A	8ddL	4a
16E	.	8ccJ	.
16DJ	.	.	.
16EL	.	8bL	4r
16F	.	.	.
16E	[8G	8eeJ	.
16DJ	.	.	.
=40	=40	=40	=40
8C#L	8G]L	[4a	1r
8AAJ	16F	.	.
.	16EJ	.	.
8DL	[4F	16a]L	.
.	.	16ff	.
8CnJ	.	16dd	.
.	.	16bJ	.
8BBL	8F]L	[4g	.
8GGJ	16E	.	.
.	16DJ	.	.
8CL	[4E	16g]L	.
.	.	16ee	.
8BBJ	.	16cc	.
.	.	16aJ	.
=41	=41	=41	=41
8AAL	4E]	8fL	1r
16BB	.	16g	.
16CJ	.	16aJ	.
8BBL	[4D	16gL	.
.	.	16f	.
8GGJ	.	16e	.
.	.	16fJ	.
4C	16D]L	[2e	.
.	16C	.	.
.	16D	.	.
.	16EJ	.	.
8r	16FL	.	.
.	16G	.	.
8BB	16A	.	.
.	16BJ	.	.
=42	=42	=42	=42
4AA	[2c	16e]L	1r
.	.	16d	.
.	.	16e	.
.	.	16fJ	.
8r	.	16gL	.
.	.	16a	.
8GG	.	16b	.
.	.	16ccJ	.
16FFL	4c_	16dL	.
16G	.	16e	.
16F	.	16d	.
16EJ	.	16eJ	.
16DL	16c]L	[4f	.
16C	16e	.	.
16BB	16d	.	.
16AAJ	16cJ	.	.
=43	=43	=43	=43
8GGL	8BL	16f]L	8r
.	.	16a	.
8GJ	16e	16g	16ccL
.	16dJ	16fJ	16bJ
8AL	16cL	8eL	8ccL
.	16B	.	.
8FJ	16A	8aJ	8ddJ
.	16BJ	.	.
8cL	[2c	[2g	8eeL
16C	.	.	16ee
16BBJ	.	.	16ddJ
8CL	.	.	8eeL
8DJ	.	.	8ffJ
=44	=44	=44	=44
8EL	8c]	8g]L	16ggL
.	.	.	16ff
16E	4G	8ccJ	16ee
16DJ	.	.	16ffJ
8EL	.	8bL	8ggL
8F#J	[8d	8aJ	8aaJ
16GL	8d]L	8gL	8bL
16Fn	.	.	.
16E	8eJ	8gJ	8gJ
16FJ	.	.	.
8GL	8dL	8fL	8r
8AJ	8cJ	8eJ	8cc
=45	=45	=45	=45
8BBL	4G	16dL	16ddL
.	.	16g	16ee
8GGJ	.	16a	16cc
.	.	16bJ	16ddJ
8r	4r	2cc	16eeL
.	.	.	16ff
8C	.	.	16dd
.	.	.	16eeJ
16DL	4r	.	8ffL
16E	.	.	.
16C	.	.	8eeJ
16DJ	.	.	.
16EL	8r	8bL	8ddL
16F	.	.	.
16D	8G	8b-J	8ggJ
16EJ	.	.	.
=46	=46	=46	=46
8FL	16AL	8a	16ccL
.	16B	.	16bn
8EJ	16G	8r	16dd
.	16AJ	.	16ccJ
8DL	16BL	4r	16bL
.	16c	.	16a
8GJ	16A	.	16g
.	16BJ	.	16fJ
8CL	8cL	4r	8eL
16D	8BJ	.	16f
16EJ	.	.	16gJ
[4F	8AL	8r	16aL
.	.	.	16b
.	8dJ	[8d	16cc
.	.	.	16ddJ
=47	=47	=47	=47
4F]	4.G	16d]L	8bL
.	.	16e	.
.	.	16c	16a
.	.	16dJ	16gJ
8EL	.	16eL	2cc
.	.	16f	.
8AJ	8c	16d	.
.	.	16eJ	.
8DL	16dL	8fL	.
.	16F	.	.
16E	16G	8eJ	.
16FJ	16AJ	.	.
8GL	16BL	8dL	4b
.	16c	.	.
8GGJ	16d	8gJ	.
.	16BJ	.	.
=48	=48	=48	=48
4C	4G	16eL	8ccL
.	.	16f	.
.	.	16e	16ee
.	.	16dJ	16ffJ
8r	4r	16cL	8eeL
.	.	16B	.
8E	.	16A	8ddJ
.	.	16G#J	.
16AAL	2r	8AL	8ccL
16B-	.	.	.
16A	.	16a	8cc#J
16GnJ	.	16b-J	.
16FL	.	8aL	8ddL
16E	.	.	.
16D	.	8gJ	8eeJ
16C#J	.	.	.
=49	=49	=49	=49
[2D	8r	8fL	8aL
.	16AL	16f	16dd
.	16B-J	16gJ	16eeJ
.	8AL	8fL	8ddL
.	8GJ	8eJ	8ccJ
4.D]	8FL	16dL	16bL
.	.	16e	16cc
.	16F	16f	16dd
.	16GJ	16eJ	16ccJ
.	8FL	8dL	8bL
8E	8EJ	8cJ	8aJ
=50	=50	=50	=50
[2F	16DL	8bL	4g
.	16E	.	.
.	16F	8ddJ	.
.	16EJ	.	.
.	8DL	8r	4r
.	8CJ	8a	.
16F]L	8BL	16gL	2r
16G	.	16f	.
16F	8dJ	16a	.
16EJ	.	16gJ	.
[4D	8r	16fL	.
.	.	16e	.
.	8A	16g	.
.	.	16fJ	.
=51	=51	=51	=51
8D]	16GL	8eL	1r
.	16F	.	.
4C	16A	8fJ	.
.	16GJ	.	.
.	16FL	8gL	.
.	16E	.	.
8BB	16G	8dJ	.
.	16FJ	.	.
8CL	8EL	16aL	.
.	.	16b	.
8DJ	8FJ	16a	.
.	.	16bJ	.
[4GG	8GL	8.btL	.
.	8DJ	.	.
.	.	32a	.
.	.	32bJ	.
=52	=52	=52	=52
8GG]L	16AL	16ccL	1r
.	16B	16dd	.
8AJ	16A	16cc	.
.	16BJ	16ddJ	.
8GL	8.BL	8.ddTL	.
8FJ	.	.	.
.	32A	32cc	.
.	32BJ	32ddJ	.
8EL	[2c	16eeL	.
.	.	16dd	.
8DJ	.	16cc	.
.	.	16bJ	.
8CL	.	16aL	.
.	.	16g	.
8EJ	.	16f#	.
.	.	16eJ	.
=53	=53	=53	=53
8DL	8c]L	8f#L	2r
16D	8F#J	8dJ	.
16EJ	.	.	.
8DL	8GL	8eL	.
8CJ	8AJ	8f#J	.
8BBL	8BL	8gL	8r
16BB	8DJ	8f#J	16ddL
16CJ	.	.	16eeJ
8BBL	8EL	8gL	8ddL
8AAJ	8F#J	8aJ	8ccJ
=54	=54	=54	=54
16GGL	4.G	4.d	8bL
16AA	.	.	.
16BB	.	.	16b
16AAJ	.	.	16ccJ
8GGL	.	.	8bL
8FF#J	8A	8d#	8aJ
8EL	[2B	8eL	16gL
.	.	.	16a
8GJ	.	16e	16b
.	.	16d#J	16aJ
8r	.	8e	8gL
8Dn	.	8r	8f#J
=55	=55	=55	=55
16CL	8B]L	8r	8eeL
16BB	.	.	.
16D	8EJ	8g	8ggJ
16CJ	.	.	.
16BBL	8F#L	8aL	8r
16AA	.	.	.
16C	8GJ	8bJ	8dd
16BBJ	.	.	.
8AAL	8AL	8cc	16ccL
.	.	.	16b
8BBJ	8DJ	4g	16dd
.	.	.	16ccJ
8CL	8EL	.	16bL
.	.	.	16a
8GGJ	16D	16f#L	16cc
.	16EJ	16gJ	16bJ
=56	=56	=56	=56
4D	16F#L	8a	8aL
.	16G	.	.
.	16E	8r	8bJ
.	16F#J	.	.
4E	16GL	4r	8ccL
.	16A	.	.
.	16F#	.	8gJ
.	16GJ	.	.
4F#	8AL	2r	16ddL
.	.	.	16ee
.	16B	.	16dd
.	16cJ	.	16eeJ
4G	16BL	.	8.eeL
.	16c	.	.
.	16A	.	.
.	16BJ	.	32dd
.	.	.	32eeJ
=57	=57	=57	=57
4A	8cL	16r	[2ff
.	.	16eeL	.
.	16d	16dd	.
.	16eJ	16ccJ	.
8BL	8dL	16bL	.
.	.	16a	.
8AJ	8cJ	16g#	.
.	.	16aJ	.
8G#L	8BL	[2b	8ff]L
8EJ	8G#J	.	16ee
.	.	.	16ffJ
8F#L	8AL	.	8eeL
8G#J	8BJ	.	8ddJ
=58	=58	=58	=58
8AL	8cL	8b]L	8ccL
8CJ	8EJ	16e	16cc
.	.	16fJ	16ddJ
8DL	8F#L	8eL	8ccL
8EJ	8G#J	8dJ	8bJ
4Fn	4A	8cL	16aL
.	.	.	16b
.	.	16c	16cc
.	.	16dJ	16bJ
8r	8r	8cL	8aL
8C#	8E	8B-J	8gJ
=59	=59	=59	=59
8DL	8FL	16AL	8ffL
.	.	16Bn	.
8EJ	8GJ	16c#	8aaJ
.	.	16BJ	.
8FL	8AL	8AL	8r
8C#J	8B-J	8GJ	8ee
4D	8AL	8f#L	16ddL
.	.	.	16ccn
.	16G#	8bJ	16ee
.	16F#J	.	16ddJ
[4AA	8EL	8r	16ccL
.	.	.	16b
.	8AJ	8e	16dd
.	.	.	16ccJ
=60	=60	=60	=60
8AA]L	8Fn	16dL	4b
.	.	16c	.
8GG#J	4E	16e	.
.	.	16dJ	.
4AA	.	16cL	8r
.	.	16B	.
.	16FL	16d	[8a
.	16D#J	16cJ	.
[2EE	[2E	8BL	16a]L
.	.	.	16b
.	.	8cJ	16g#
.	.	.	16aJ
.	.	16dL	[4b
.	.	16c	.
.	.	16e	.
.	.	16dJ	.
=61	=61	=61	=61
1EE_	1E_	8cL	16b]L
.	.	.	16cc
.	.	8dJ	16a
.	.	.	16bJ
.	.	16eL	[4cc
.	.	16d	.
.	.	16f	.
.	.	16eJ	.
.	.	8dL	16cc]L
.	.	.	16dd
.	.	8eJ	16b
.	.	.	16ccJ
.	.	[4f	16ddL
.	.	.	16cc
.	.	.	16b
.	.	.	16aJ
=62	=62	=62	=62
8EE]L	8E]	8f]L	16g#L
.	.	.	16b
16E	8r	8eJ	16cc
16FJ	.	.	16ddJ
8EL	4r	8r	16eeL
.	.	.	16ff
8DJ	.	16r	[8ggnJ
.	.	16b-	.
8C#L	8r	[4a	16gg]L
.	.	.	16aa
16C#	16EL	.	16gg
16DJ	16FJ	.	16ffJ
8C#L	8EL	16a]L	[4gg
.	.	16cc#	.
8BBJ	8DJ	16ee	.
.	.	16ddJ	.
=63	=63	=63	=63
16AAL	8C#L	[4ee	16gg]L
16BB	.	.	16ff
16C#	16C#	.	16ee
16BBJ	16DJ	.	16ffJ
8AAL	8C#L	16ee]L	[4gg
.	.	16a	.
8GGJ	8BB-J	16cc#	.
.	.	16ddJ	.
4FF	4AA	16eeL	16gg]L
.	.	16cc#	16bb-
.	.	8ddJ	16aa
.	.	.	16ggJ
8r	8r	8r	16ffL
.	.	.	16ee
8F	16fL	16aL	16dd
.	16eJ	16gJ	16cc#J
=64	=64	=64	=64
8B-L	4.d	8fL	16ddL
.	.	.	16ee
8GJ	.	8b-J	16dd
.	.	.	16eeJ
4A	.	8aL	8.eeL
.	8c#	[8gJ	.
.	.	.	16ddJ
8DL	8dL	8g]L	[2dd
16D	8AJ	16f	.
16C#J	.	16eJ	.
8DL	4r	16fL	.
.	.	16g	.
8EJ	.	16a	.
.	.	16fJ	.
=65	=65	=65	=65
8FL	8r	4d	4dd]
16F	16AL	.	.
16EJ	16G#J	.	.
8F#L	8AL	4r	4r
8G#J	8BJ	.	.
16AL	8cL	2r	2r
16G#	.	.	.
16F#	16c	.	.
16G#J	16BJ	.	.
8AL	8cL	.	.
8BJ	8dJ	.	.
=66	=66	=66	=66
8CL	16eL	1r	1r
.	16d	.	.
8AAJ	16c	.	.
.	16dJ	.	.
8r	8eL	.	.
8D	8fJ	.	.
16EL	8G#L	.	.
16F	.	.	.
16D	8EJ	.	.
16EJ	.	.	.
16FL	8r	.	.
16Gn	.	.	.
16E	8A	.	.
16F#J	.	.	.
=67	=67	=67	=67
8GL	16BL	1r	2r
.	16c	.	.
8FnJ	16A	.	.
.	16BJ	.	.
8EL	16cL	.	.
.	16d	.	.
8AJ	16B	.	.
.	16c#J	.	.
8DL	8dL	.	8r
[8AJ	8cnJ	.	16eeL
.	.	.	16ffJ
16A]L	8BL	.	8eeL
16G#	.	.	.
16A	8eJ	.	8ddJ
16G#J	.	.	.
=68	=68	=68	=68
[4A	4A	8r	8ccL
.	.	16aL	16cc
.	.	16bJ	16ddJ
16A]L	4r	8aL	8ccL
16Gn	.	.	.
16F	.	8gJ	8b-J
16EJ	.	.	.
[4F	8r	8fL	16aL
.	.	.	16b-
.	16AL	16f	16cc
.	16B-J	16gJ	16b-J
16F]L	8cL	8fL	8aL
16E	.	.	.
16D	8B-J	8eJ	8gJ
16C#J	.	.	.
=69	=69	=69	=69
8D	8AL	16dL	8ffL
.	.	16e	.
8r	16d	16f	8aaJ
.	16eJ	16eJ	.
4r	16fL	8dL	8r
.	16g	.	.
.	[8aJ	8c#J	8ee
2r	8a]	8b-L	16ddL
.	.	.	16cc#
.	4g	8ddJ	16ee
.	.	.	16ddJ
*	*	*	*strophe
*	*	*	*^
*	*	*	*S/sic	*S/ossia
.	.	8r	16cc#xxL	16ccnxxL
.	.	.	16bnxx	16b-xx
*	*	*	*v	*v
*	*	*	*Xstrophe
.	[8f	8a	16dd
.	.	.	16ccnJ
=70	=70	=70	=70
1r	8f]L	16gL	8bL
.	.	16f	.
.	8eJ	16a	8cc#J
.	.	16gJ	.
.	[4d	16fL	8ddL
.	.	16e	.
.	.	16g	8aJ
.	.	16fJ	.
.	16d]L	8eL	[2ee
.	16c#	.	.
.	16e	8fJ	.
.	16dJ	.	.
.	16c#L	4g	.
.	16B	.	.
.	16d	.	.
.	16c#J	.	.
=71	=71	=71	=71
1r	[4d	4f	16ee]L
.	.	.	16cc#
.	.	.	16dd
.	.	.	16ffJ
.	16d]L	8eL	[4gg
.	16B	.	.
.	16c#	[8aJ	.
.	16eJ	.	.
.	[4f	16a]L	16gg]L
.	.	16cc#	16ee
.	.	8ddJ	16ff
.	.	.	16aaJ
.	16f]L	8gL	[4bb-
.	16d	.	.
.	16e	[8ccnJ	.
.	16gJ	.	.
=72	=72	=72	=72
1r	[4a	16cc]L	16bb-]L
.	.	16ee	16gg
.	.	8ffJ	16aa
.	.	.	16cccJ
.	16a]L	[4b-	8ddL
.	16f	.	.
.	16g	.	16ee
.	16b-J	.	16ggJ
.	8eL	16b-]L	[4cc
.	.	16g	.
.	8fJ	16a	.
.	.	16ccJ	.
.	4B-	4d	16cc]L
.	.	.	16f
.	.	.	16g
.	.	.	[16b-J
=73	=73	=73	=73
8r	[2c	8e	16b-]L
.	.	.	16b-
16CL	.	4f	16a
16DJ	.	.	16gJ
8CL	.	.	8.gL
8BB-J	.	8e	.
.	.	.	16fJ
8AAL	8c]L	8fL	4f
16AA	8CJ	16cc	.
16BB-J	.	16ddJ	.
8AAL	8DL	8ccL	[4cc
8GGJ	8EJ	8b-J	.
=74	=74	=74	=74
16FFL	8FL	8aL	1cc_
16GG	.	.	.
16AA	8EJ	16a	.
16GGJ	.	16b-J	.
8FFL	8FL	8aL	.
8EE-J	8GJ	8gJ	.
8DL	16AL	16f#L	.
.	16G	16g	.
8F#J	16F#	16a	.
.	16GJ	16gJ	.
8r	16AL	8f#L	.
.	16B-	.	.
8C	8cJ	8e-J	.
=75	=75	=75	=75
16BB-L	8F#L	8ddL	8cc]L
16AA	.	.	.
16C	8AJ	8ff#J	8aJ
16BB-J	.	.	.
16AAL	8GL	8r	[4ee-
16GG	.	.	.
16BB-	8F#J	8cc	.
16AAJ	.	.	.
4.GG	8GL	16b-L	8ee-]L
.	.	16a	.
.	8FnJ	16cc	8ddJ
.	.	16b-J	.
.	8E-L	16aL	16ccL
.	.	16g	16b-
8FF#	[8DJ	16b-	16dd
.	.	16aJ	16ccJ
=76	=76	=76	=76
[1GG	8D]L	4g	16b-L
.	.	.	16cc
.	16G	.	16dd
.	16AJ	.	16ccJ
.	8GL	4r	16b-L
.	.	.	16a
.	8FJ	.	16g
.	.	.	16fJ
.	8EL	2r	16gL
.	.	.	16a
.	16E	.	16b-
.	16FJ	.	16aJ
.	8EL	.	16gL
.	.	.	16f
.	8DJ	.	16e
.	.	.	16dJ
=77	=77	=77	=77
2GG_	16C#L	8r	2ee
.	16D	.	.
.	16E	16aL	.
.	16DJ	16gJ	.
.	8C#L	8aL	.
.	8BBJ	8bJ	.
8GG]L	8AL	8cc#L	8r
16E	8c#J	16cc#	16eeL
16FJ	.	16bJ	16ddJ
16GL	8r	8cc#L	8eeL
16F	.	.	.
16E	8a	8ddJ	8ffJ
16DJ	.	.	.
=78	=78	=78	=78
8C#	8.b-L	16eeL	8ggL
.	.	16dd	.
8r	.	16cc#	16gg
.	16aJ	16ddJ	16ffJ
4r	16gL	8eeL	8ggL
.	16f	.	.
.	16e	8ffJ	8aaJ
.	16dJ	.	.
8r	4c#	8gL	16bb-L
.	.	.	16aa
8e	.	8eJ	16gg
.	.	.	16aaJ
8c#L	8r	8r	16bb-L
.	.	.	16gg
8AJ	8c#	8a	16aa
.	.	.	16eeJ
=79	=79	=79	=79
8D	8dL	8aL	16ffL
.	.	.	16ee
8r	8fJ	8ddJ	16dd
.	.	.	16eeJ
4r	8dL	8aL	16ffL
.	.	.	16dd
.	8AJ	8gJ	16ee
.	.	.	16cc#J
8D	8B-L	8fL	16ddL
.	.	.	16ccn
8r	8FJ	8dJ	16b-
.	.	.	16ccJ
4r	8B-L	8fL	16ddL
.	.	.	16b-
.	8dJ	8fJ	16cc
.	.	.	16aJ
=80	=80	=80	=80
!! Five-voice material until the end:
*	*	*	*+
*	*	*	*	**kern
*	*	*	*	*k[]
*	*	*	*	*a:
*	*	*	*	*M4/4
!!4D;	4Bn;	4e;	4bn; 4ee;	4gg#;
!!4r	4r	4r	4r	4r
!!4D#	4A	4c	8r	[2aa
!!.	.	.	16a	.
!!.	.	.	16g#	.
!!4r	4r	4r	8a	.
!!.	.	.	8b	.
!!=81	=81	=81	=81	=81
!!4E	4A	4c	8cc	8aa]
!!.	.	.	16cc	16ee
!!.	.	.	16b	16dd
!!4r	4r	4r	8cc	8ee
!!.	.	.	8dd	8ff#
!!4E	4B	4d	16ee	8gg#
!!.	.	.	16dd	.
!!.	.	.	16cc	16gg#
!!.	.	.	16dd	16ff#
!!4r	4r	4r	8ee	8gg#
!!.	.	.	8ffn	8aa
!!=82	=82	=82	=82	=82
!!2r	2r	8r	8g#	16bb
!!.	.	.	.	16aa
!!.	.	16B	8e	16gg#
!!.	.	16c	.	16aa
!!.	.	16d	8r	8bb
!!.	.	16e	.	.
!!.	.	16f#	8a	8ccc
!!.	.	16g#	.	.
!!4F#	4A	4f# 4a	4b	4dd#
!!8r	8r	8r	8r	8r
!!8G#	8B	8e	8b	8ee
!!=83	=83	=83	=83	=83
!!8A	8c	8e	4a	8cc
!!8D	8d	8fn	.	16b
!!.	.	.	.	16a
!!4E	8c	4e	8a	16cc
!!.	.	.	.	16b
!!.	8B	.	8d	16a
!!.	.	.	.	16g#
!![2AA	8A	4e	4c#	4a
!!.	16A	.	.	.
!!.	16B-	.	.	.
!!.	8A	8r	4r	4r
!!.	8Gn	8e	.	.
!!=84	=84	=84	=84	=84
!!1AA_	8F	8A	1r	2r
!!.	16F	16a	.	.
!!.	16G	16b-	.	.
!!.	8F	8a	.	.
!!.	8E	8g	.	.
!!.	16D	8f	.	8r
!!.	16E	.	.	.
!!.	16F	16f	.	16dd
!!.	16E	16g	.	16cc#
!!.	8D	8f	.	8dd
!!.	8C#	8e	.	8ee
!!=85	=85	=85	=85	=85
!!1AA_	8D	8d	8r	8ff
!!.	8F	16A	16a	16ff
!!.	.	16B	16g	16ee
!!.	8E	8c#	8a	8ff
!!.	8D	8d	8b	8gg
!!.	4G	4e	8cc#	16aa
!!.	.	.	.	16gg
!!.	.	.	16cc#	16ff
!!.	.	.	16b	16gg
!!.	8r	8r	8cc#	8aa
!!.	8F	8d	8dd	8bb-
!!=86	=86	=86	=86	=86
!!1AA_	4E	4g	16ee	8cc#
!!.	.	.	16dd	.
!!.	.	.	16cc#	8a
!!.	.	.	16dd	.
!!.	8r	8r	8ee	8r
!!.	8D	16f	8ff	[8dd
!!.	.	16e	.	.
!!.	2B	4d	4g#	16dd]
!!.	.	.	.	16ccn
!!.	.	.	.	16b
!!.	.	.	.	16cc
!!.	.	8r	8r	16dd
!!.	.	.	.	16ee
!!.	.	16d	[8dd	16ff#
!!.	.	16e	.	16gg#
!!=87	=87	=87	=87	=87
!!1AA; 1A;]	8r 8f	4r	8r 8dd]	1aa;
!!.	16c# 16e	.	16cc# 16ee	.
!!.	16B 16d	.	16dd 16ffn	.
!!.	8c# 8e	8r	8cc# 8ee	.
!!.	8d 8f	16r	8b 8dd	.
!!.	.	16g#	.	.
!!.	2e; 2e;	2a;	2a; 2cc#;	.
==	==	==	==	==
*-	*-	*-	*-	*-
!!!OTA: Das wohltemperirte Clavier
!!!OCY: Deutschland
!!!PPP: Coethen; Cothen
!!!ODT: <1722//
!!!PDT: 1722
!!!AFR: fuga; fugue
!!!AST: polyphony
!!!AMT: simple quadruple
!!!SCA: Bach-Werke-Verzeichnis
!!!YOR: Bach-Gesellschaft Ausgabe, Band 14
!!!YOO: Breitkopf und Härtel
!!!YOY: 1866
!!!YOE: Franz Kroll (1820-1877)
!!!AIN: cemba; clavi
!!!YEC: Copyright 1994, David Huron
!!!YEM: Rights to all derivative electronic formats reserved.
!!!ENC: David Huron
!!!END: 1986/11/23
!!!EED: David Huron
!!!YER: 1994/08/10
!!!EED2: Craig Stuart Sapp (notational niceties)
!!!EEV: 2020/09/19
!!!EFL: 20/48
